X:1
T: Miss Jane Stewart
C:
R:Reel
Q: 232
K:A
M:4/4
L:1/8
|:E|A2 cA eA cA|EA cA GB2c|AA cA eA cA|GE FG A3E|
A2 cA eA cA|EA cA GB2c|AA cA eA cA|GE FG A3c1/2d1/2|
ec dB cA BA|FB BA GB2c1/2d1/2|ec dB cA BA|GE FG A3c1/2d1/2|
ec dB cA BA|FB BA GB Bc|AA ce ae cA|GE FG A3:|
